src/assets/metronic/worbby/global/img/icon-home.svg

<?xml version="1.0" encoding="UTF-8"?>
<svg width="45px" height="45px" viewBox="0 0 45 45" version="1.1" xmlns="http://www.w3.org/2000/svg" xmlns:xlink="http://www.w3.org/1999/xlink">
    <!-- Generator: Sketch 42 (36781) - http://www.bohemiancoding.com/sketch -->
    <title>icon-home</title>
    <desc>Created with Sketch.</desc>
    <defs>
        <linearGradient x1="0%" y1="49.9979293%" x2="99.9874969%" y2="49.9979293%" id="linearGradient-1">
            <stop stop-color="#FFB247" offset="0%"></stop>
            <stop stop-color="#FFCB33" offset="100%"></stop>
        </linearGradient>
    </defs>
    <g id="Desktop" stroke="none" stroke-width="1" fill="none" fill-rule="evenodd">
        <g id="Desktop-How-Does-it-Work" transform="translate(-608.000000, -830.000000)">
            <g id="photo-step1" transform="translate(225.000000, 370.000000)">
                <g id="icon-home" transform="translate(383.000000, 460.000000)">
                    <g>
                        <path d="M45,18.75 C45,8.39475 36.60525,0 26.25,0 C15.89475,0 7.5,8.39475 7.5,18.75 C7.5,29.10525 15.89475,37.5 26.25,37.5 C36.60525,37.5 45,29.10525 45,18.75 Z" id="Fill-1" fill="url(#linearGradient-1)"></path>
                        <path d="M33.8646,42.375 L26.1231,42.375 L26.1231,29.865 C26.1231,29.1405 25.5351,28.5525 24.8106,28.5525 L17.89935,28.5525 C17.17485,28.5525 16.58685,29.1405 16.58685,29.865 L16.58685,42.375 L8.8446,42.375 L8.8446,23.49825 L21.3546,10.98825 L33.8646,23.49825 L33.8646,42.375 Z M19.21185,42.375 L23.4981,42.375 L23.4981,31.1775 L19.21185,31.1775 L19.21185,42.375 Z M41.63385,27.555 L36.10635,22.0275 C36.1056,22.0275 36.1056,22.02675 36.10485,22.026 L22.2831,8.2035 C22.22085,8.14125 22.1526,8.0865 22.0806,8.0385 C22.0356,8.0085 21.98685,7.98675 21.93885,7.96275 C21.91035,7.9485 21.88335,7.9305 21.8541,7.9185 C21.79935,7.896 21.74235,7.88175 21.68535,7.86675 C21.65985,7.86 21.6351,7.8495 21.6096,7.84425 C21.4416,7.81125 21.26835,7.81125 21.10035,7.84425 C21.0741,7.8495 21.0501,7.86 21.02385,7.86675 C20.9676,7.88175 20.9106,7.896 20.8551,7.9185 C20.82585,7.9305 20.7996,7.9485 20.7711,7.96275 C20.7231,7.98675 20.67435,8.0085 20.62935,8.0385 C20.5566,8.0865 20.4891,8.14125 20.42685,8.2035 L6.60435,22.026 C6.6036,22.02675 6.60285,22.0275 6.60285,22.02825 L0.3846,28.2465 C-0.1284,28.75875 -0.1284,29.58975 0.3846,30.102 C0.6411,30.3585 0.97635,30.48675 1.31235,30.48675 C1.64835,30.48675 1.98435,30.3585 2.2401,30.102 L6.2196,26.12325 L6.2196,43.6875 C6.2196,44.412 6.8076,45 7.5321,45 L17.89935,45 L24.8106,45 L35.1771,45 C35.9016,45 36.4896,44.412 36.4896,43.6875 L36.4896,26.12325 L39.7776,29.41125 C40.2906,29.9235 41.1216,29.9235 41.63385,29.41125 C42.1461,28.899 42.1461,28.06725 41.63385,27.555 L41.63385,27.555 Z" id="Fill-3" fill="#1E2225"></path>
                    </g>
                </g>
            </g>
        </g>
    </g>
</svg>

<svg xmlns="http://www.w3.org/2000/svg" width="45" height="45"><defs><linearGradient id="a" x1="0%" x2="99.9875%" y1="49.9979%" y2="49.9979%"><stop stop-color="#FFB247" offset="0%"/><stop stop-color="#FFCB33" offset="100%"/></linearGradient></defs><g fill="none" fill-rule="evenodd"><path fill="url(#a)" d="M45 18.75C45 8.3948 36.6052 0 26.25 0S7.5 8.3948 7.5 18.75c0 10.3553 8.3948 18.75 18.75 18.75S45 29.1053 45 18.75z"/><path fill="#1E2225" d="M33.8646 42.375H26.123v-12.51c0-.7245-.588-1.3125-1.3124-1.3125h-6.9113c-.7245 0-1.3125.588-1.3125 1.3125v12.51H8.8446V23.4982l12.51-12.51 12.51 12.51V42.375zm-14.6528 0h4.2863V31.1775H19.212V42.375zm22.422-14.82l-5.5275-5.5275c-.0007 0-.0007-.0008-.0014-.0015L22.2828 8.2035c-.0622-.0623-.1304-.117-.2024-.165-.045-.03-.0938-.0518-.1418-.0758-.0284-.0142-.0555-.0322-.0847-.0442-.0546-.0225-.1117-.0367-.1686-.0518-.0256-.0067-.0503-.0172-.0758-.0225-.168-.033-.3412-.033-.5093 0-.0262.0053-.0502.0158-.0765.0225-.0562.015-.1132.0293-.1687.0518-.0292.012-.0554.03-.084.0442-.048.024-.0967.0458-.1417.0758-.0727.048-.1402.1027-.2024.165L6.6043 22.026c-.0008.0008-.0015.0015-.0015.0023L.3845 28.2464c-.513.5122-.513 1.3432 0 1.8555.2565.2565.5917.3848.9277.3848.336 0 .672-.1283.9278-.3848l3.9796-3.9788v17.5643c0 .7245.588 1.3125 1.3125 1.3125h27.6451c.7246 0 1.3126-.588 1.3126-1.3125V26.1232l3.288 3.288c.513.5123 1.344.5123 1.8563 0 .512-.5122.512-1.344 0-1.8562z"/></g></svg>
